assets/svg/1F63E.svg

<svg xmlns="http://www.w3.org/2000/svg" viewBox="0 0 64 64" enable-background="new 0 0 64 64"><g fill="#7094a6"><path d="m51.896 9.622c2.037 4.265-6.845 15.967-9.846 17.395-3 1.43-3.585-8.502-4.586-13.924-1.028-5.583-2.362-11.169.642-12.594 3-1.431 11.762 4.859 13.79 9.123"/><path d="m52.11 13.242c1.766 3.706-5.941 13.867-8.549 15.11-2.605 1.243-3.111-7.384-3.982-12.09-.893-4.845-2.05-9.696.558-10.935 2.606-1.24 10.215 4.218 11.973 7.922"/></g><path fill="#87b1c1" d="m62.731 32.35c0 16.565-13.424 29.989-29.989 29.989s-29.988-13.424-29.988-29.989c0-16.561 13.424-28.09 29.989-28.09s29.988 11.531 29.988 28.09"/><path fill="#7094a6" d="m17.03 41.12c-5.316-11.405-4.981-22.707-.176-32.852-8.362 4.537-14.1 13.601-14.1 24.08 0 16.561 13.424 29.989 29.989 29.989.296 0 .583-.037.877-.045-6.874-5.789-12.668-12.749-16.594-21.18"/><path fill="#394c54" d="m63.739 41.903c0-2.434-2.071-2.39-4.896-2.39-2.826 0-5.336-.044-5.336 2.39 0 2.438 2.291 4.411 5.115 4.411 2.824 0 5.117-1.973 5.117-4.411"/><ellipse fill="#fff" cx="45.3" cy="32.28" rx="6.095" ry="9.127"/><ellipse fill="#25333a" cx="45.3" cy="32.28" rx="3.943" ry="4.782"/><path fill="#fff" d="m44.14 30.07c0 1.418.517 2.567 1.155 2.567.641 0 1.157-1.148 1.157-2.567 0-1.422-.517-2.571-1.157-2.571-.639 0-1.155 1.149-1.155 2.571"/><path fill="#394c54" d="m53.689 27.641c-2.436-8.659-10.639-11.513-18.888-11.605-2.407-.027-2.959 3.732-.515 3.76 6.945.078 13.791 1.824 15.88 9.255.664 2.355 4.179.921 3.523-1.41"/><ellipse fill="#fff" cx="61" cy="33.3" rx="2.738" ry="5.03"/><path fill="#394c54" d="m58.09 28.27c2.33-4.638 1.737-4.312 4.977-4.638.957-.096 1.056 2.148.078 2.167-2.778.043-2.147-.418-3.792 3.495-.538 1.278-1.882.202-1.263-1.024"/><path fill="#7094a6" d="m16.726 7.936c2.941 3.701-3.082 17.1-5.686 19.16-2.608 2.067-5.404-7.482-7.597-12.542-2.26-5.207-4.81-10.348-2.204-12.415 2.604-2.067 12.553 2.093 15.487 5.793"/><path fill="#fbb042" d="m17.674 10.775c2.132 2.995-1.822 13.496-3.604 15.08-1.782 1.589-3.93-6.04-5.567-10.1-1.685-4.175-3.574-8.301-1.789-9.886 1.781-1.588 8.83 1.907 10.96 4.899"/><path fill="#394c54" d="m31.531 51.44c7.086-4.04 14.866-1.698 19.654 3.078 1.241 1.241 3.415-1.302 2.171-2.545-5.401-5.391-14.332-8.111-22.348-3.539-1.74.994-1.233 4.01.523 3.01"/><ellipse fill="#25333a" cx="60.885" cy="33.3" rx="2.095" ry="2.541"/><ellipse fill="#fff" cx="60.885" cy="32.12" rx=".613" ry="1.363"/><g fill="#5e7d89"><path d="m52.29 44.11c-.041.713-.531 1.265-1.099 1.233l-15.985-.904c-.564-.033-.992-.637-.951-1.35l0 0c.04-.714.533-1.266 1.098-1.234l15.985.904c.567.032.993.637.952 1.351l0 0"/><path d="m51.663 47.11c.117.673-.168 1.283-.635 1.365l-13.209 2.289c-.467.081-.941-.396-1.058-1.07l0 0c-.117-.671.168-1.282.635-1.363l13.209-2.289c.467-.082.942.397 1.058 1.068l0 0"/></g></svg>

<?xml version="1.0" encoding="UTF-8" standalone="no"?>
<!-- Generator: Adobe Illustrator 16.0.0, SVG Export Plug-In . SVG Version: 6.00 Build 0)  -->

<svg
   xmlns:dc="http://purl.org/dc/elements/1.1/"
   xmlns:cc="http://creativecommons.org/ns#"
   xmlns:rdf="http://www.w3.org/1999/02/22-rdf-syntax-ns#"
   xmlns:svg="http://www.w3.org/2000/svg"
   xmlns="http://www.w3.org/2000/svg"
   xmlns:sodipodi="http://sodipodi.sourceforge.net/DTD/sodipodi-0.dtd"
   xmlns:inkscape="http://www.inkscape.org/namespaces/inkscape"
   version="1.1"
   id="Layer_1"
   x="0px"
   y="0px"
   width="64px"
   height="64px"
   viewBox="0 0 64 64"
   enable-background="new 0 0 64 64"
   xml:space="preserve"
   inkscape:version="0.48.5 r10040"
   sodipodi:docname="1F63E.svg"
   inkscape:export-filename="D:\TESTINGEMOJI\SVGTEST\1F63E.png"
   inkscape:export-xdpi="90"
   inkscape:export-ydpi="90"><metadata
   id="metadata6106"><rdf:RDF><cc:Work
       rdf:about=""><dc:format>image/svg+xml</dc:format><dc:type
         rdf:resource="http://purl.org/dc/dcmitype/StillImage" /><dc:title></dc:title></cc:Work></rdf:RDF></metadata><defs
   id="defs6104" /><sodipodi:namedview
   pagecolor="#ffffff"
   bordercolor="#666666"
   borderopacity="1"
   objecttolerance="10"
   gridtolerance="10"
   guidetolerance="10"
   inkscape:pageopacity="0"
   inkscape:pageshadow="2"
   inkscape:window-width="640"
   inkscape:window-height="480"
   id="namedview6102"
   showgrid="false"
   inkscape:zoom="3.6875"
   inkscape:cx="32"
   inkscape:cy="32"
   inkscape:window-x="493"
   inkscape:window-y="407"
   inkscape:window-maximized="0"
   inkscape:current-layer="Layer_1" />
<g
   id="g5994">
	<g
   id="g5996">
		<g
   id="g5998">
			<g
   id="g6000">
				<path
   fill="#7094A6"
   d="M51.896,9.622c2.037,4.265-6.845,15.967-9.846,17.395c-3.004,1.43-3.585-8.502-4.586-13.924      C36.436,7.51,35.102,1.924,38.106,0.499C41.108-0.932,49.868,5.358,51.896,9.622z"
   id="path6002" />
			</g>
		</g>
		<g
   id="g6004">
			<g
   id="g6006">
				<path
   fill="#7094A6"
   d="M52.107,13.242c1.766,3.706-5.941,13.867-8.549,15.107c-2.605,1.243-3.111-7.384-3.982-12.094      c-0.893-4.845-2.05-9.696,0.558-10.935C42.74,4.08,50.349,9.538,52.107,13.242z"
   id="path6008" />
			</g>
		</g>
	</g>
	<g
   id="g6010">
		<g
   id="g6012">
			<path
   fill="#87B1C1"
   d="M62.731,32.35c0,16.565-13.424,29.989-29.989,29.989S2.754,48.915,2.754,32.35     c0-16.561,13.424-28.092,29.989-28.092S62.731,15.789,62.731,32.35z"
   id="path6014" />
		</g>
	</g>
	<g
   id="g6016">
		<g
   id="g6018">
			<g
   id="g6020">
				<path
   fill="#7094A6"
   d="M17.026,41.122C11.71,29.717,12.045,18.415,16.85,8.27C8.488,12.807,2.754,21.871,2.754,32.354      c0,16.561,13.424,29.989,29.989,29.989c0.296,0,0.583-0.037,0.877-0.045C26.746,56.509,20.952,49.549,17.026,41.122z"
   id="path6022" />
			</g>
		</g>
	</g>
	<g
   id="g6024">
		<g
   id="g6026">
			<path
   fill="#394C54"
   d="M63.739,41.903c0-2.434-2.071-2.39-4.896-2.39c-2.826,0-5.336-0.044-5.336,2.39     c0,2.438,2.291,4.411,5.115,4.411C61.446,46.314,63.739,44.341,63.739,41.903z"
   id="path6028" />
		</g>
	</g>
	<g
   id="g6030">
		<g
   id="g6032">
			<ellipse
   fill="#FFFFFF"
   cx="45.297"
   cy="32.276"
   rx="6.095"
   ry="9.127"
   id="ellipse6034" />
		</g>
	</g>
	<g
   id="g6036">
		<g
   id="g6038">
			<ellipse
   fill="#25333A"
   cx="45.298"
   cy="32.276"
   rx="3.943"
   ry="4.782"
   id="ellipse6040" />
		</g>
	</g>
	<g
   id="g6042">
		<g
   id="g6044">
			<path
   fill="#FFFFFF"
   d="M44.141,30.065c0,1.418,0.517,2.567,1.155,2.567c0.641,0,1.157-1.148,1.157-2.567     c0-1.422-0.517-2.571-1.157-2.571C44.657,27.494,44.141,28.643,44.141,30.065z"
   id="path6046" />
		</g>
	</g>
	<g
   id="g6048">
		<g
   id="g6050">
			<path
   fill="#394C54"
   d="M53.689,27.641c-2.436-8.659-10.639-11.513-18.888-11.605c-2.407-0.027-2.959,3.732-0.515,3.76     c6.945,0.078,13.791,1.824,15.88,9.255C50.83,31.406,54.345,29.972,53.689,27.641z"
   id="path6052" />
		</g>
	</g>
	<g
   id="g6054">
		<g
   id="g6056">
			<ellipse
   fill="#FFFFFF"
   cx="61.001"
   cy="33.299"
   rx="2.738"
   ry="5.028"
   id="ellipse6058" />
		</g>
	</g>
	<g
   id="g6060">
		<g
   id="g6062">
			<path
   fill="#394C54"
   d="M58.094,28.27c2.33-4.638,1.737-4.312,4.977-4.638c0.957-0.096,1.056,2.148,0.078,2.167     c-2.778,0.043-2.147-0.418-3.792,3.495C58.819,30.572,57.475,29.496,58.094,28.27z"
   id="path6064" />
		</g>
	</g>
	<g
   id="g6066">
		<g
   id="g6068">
			<path
   fill="#7094A6"
   d="M16.726,7.936c2.941,3.701-3.082,17.097-5.686,19.164c-2.608,2.067-5.404-7.482-7.597-12.542     C1.183,9.351-1.367,4.21,1.239,2.143C3.843,0.076,13.792,4.236,16.726,7.936z"
   id="path6070" />
		</g>
	</g>
	<g
   id="g6072">
		<g
   id="g6074">
			<path
   fill="#FBB042"
   d="M17.674,10.775c2.132,2.995-1.822,13.496-3.604,15.083c-1.782,1.589-3.93-6.038-5.567-10.096     c-1.685-4.175-3.574-8.301-1.789-9.886C8.495,4.288,15.544,7.783,17.674,10.775z"
   id="path6076" />
		</g>
	</g>
	<g
   id="g6078">
		<path
   fill="#394C54"
   d="M31.531,51.439c7.086-4.041,14.866-1.698,19.654,3.078c1.241,1.241,3.415-1.302,2.171-2.545    c-5.401-5.391-14.332-8.111-22.348-3.539C29.268,49.427,29.775,52.438,31.531,51.439z"
   id="path6080" />
	</g>
	<g
   id="g6082">
		<g
   id="g6084">
			<g
   id="g6086">
				<ellipse
   fill="#25333A"
   cx="60.885"
   cy="33.299"
   rx="2.095"
   ry="2.541"
   id="ellipse6088" />
			</g>
		</g>
		<g
   id="g6090">
			<g
   id="g6092">
				<ellipse
   fill="#FFFFFF"
   cx="60.885"
   cy="32.125"
   rx="0.613"
   ry="1.363"
   id="ellipse6094" />
			</g>
		</g>
	</g>
	<g
   id="g6096">
		<path
   fill="#5E7D89"
   d="M52.293,44.113c-0.041,0.713-0.531,1.265-1.099,1.233l-15.985-0.904c-0.564-0.033-0.992-0.637-0.951-1.35    l0,0c0.04-0.714,0.533-1.266,1.098-1.234l15.985,0.904C51.908,42.794,52.334,43.399,52.293,44.113L52.293,44.113z"
   id="path6098" />
		<path
   fill="#5E7D89"
   d="M51.663,47.107c0.117,0.673-0.168,1.283-0.635,1.365l-13.209,2.289c-0.467,0.081-0.941-0.396-1.058-1.07    l0,0c-0.117-0.671,0.168-1.282,0.635-1.363l13.209-2.289C51.072,45.957,51.547,46.436,51.663,47.107L51.663,47.107z"
   id="path6100" />
	</g>
</g>
</svg>
